icons/checkbox-16.svg

<svg xmlns="http://www.w3.org/2000/svg" width="16" height="16" viewBox="0 0 16 16"><path d="M2.75 1h10.5c.966 0 1.75.784 1.75 1.75v10.5A1.75 1.75 0 0113.25 15H2.75A1.75 1.75 0 011 13.25V2.75C1 1.784 1.784 1 2.75 1zM2.5 2.75v10.5c0 .138.112.25.25.25h10.5a.25.25 0 00.25-.25V2.75a.25.25 0 00-.25-.25H2.75a.25.25 0 00-.25.25zm9.28 3.53l-4.5 4.5a.75.75 0 01-1.06 0l-2-2a.751.751 0 01.018-1.042.751.751 0 011.042-.018l1.47 1.47 3.97-3.97a.751.751 0 011.042.018.751.751 0 01.018 1.042z"/></svg>

<svg xmlns="http://www.w3.org/2000/svg" width="16" height="16" viewBox="0 0 16 16">
  <defs/>
  <path d="M2.75,1 L13.25,1 C14.216,1 15,1.784 15,2.75 L15,13.25 C15,14.216 14.216,15 13.25,15 L2.75,15 C1.784,15 1,14.216 1,13.25 L1,2.75 C1,1.784 1.784,1 2.75,1 Z M2.5,2.75 L2.5,13.25 C2.5,13.388 2.612,13.5 2.75,13.5 L13.25,13.5 C13.388,13.5 13.5,13.388 13.5,13.25 L13.5,2.75 C13.5,2.612 13.388,2.5 13.25,2.5 L2.75,2.5 C2.612,2.5 2.5,2.612 2.5,2.75 Z M11.78,6.28 L7.28,10.78 C6.987,11.072 6.513,11.072 6.22,10.78 L4.22,8.78 C3.945,8.484 3.953,8.024 4.238,7.738 C4.524,7.453 4.984,7.445 5.28,7.72 L6.75,9.19 L10.72,5.22 C11.016,4.945 11.476,4.953 11.762,5.238 C12.047,5.524 12.055,5.984 11.78,6.28 Z"/>
</svg>
